build/img/logout.svg

<svg width="66" height="66" viewBox="0 0 66 66" fill="none" xmlns="http://www.w3.org/2000/svg">
<path d="M0 16.2947V49.7053C0 54.309 3.75566 58.0647 8.35937 58.0647H35.3624C39.9661 58.0647 43.7218 54.309 43.7218 49.7053V44.2939C43.7218 43.3786 42.9814 42.6382 42.0661 42.6382C41.1507 42.6382 40.4104 43.3786 40.4104 44.2939V49.7053C40.4104 52.4918 38.1354 54.7667 35.349 54.7667H8.35937C5.57291 54.7667 3.29798 52.4918 3.29798 49.7053V16.2947C3.29798 13.5083 5.57291 11.2333 8.35937 11.2333H35.3624C38.1489 11.2333 40.4238 13.5083 40.4238 16.2947V21.7061C40.4238 22.6215 41.1642 23.3618 42.0795 23.3618C42.9949 23.3618 43.7353 22.6215 43.7353 21.7061V16.2947C43.7353 11.691 39.9796 7.93536 35.3759 7.93536H8.35937C3.75566 7.93536 0 11.6776 0 16.2947Z" fill="white"/>
<path d="M51.8789 45.4516C52.202 45.7746 52.6193 45.9362 53.0501 45.9362C53.4808 45.9362 53.8981 45.7746 54.2212 45.4516L65.5151 34.1577C66.1612 33.5115 66.1612 32.475 65.5151 31.8289L54.2212 20.535C53.575 19.8889 52.5385 19.8889 51.8924 20.535C51.2463 21.1811 51.2463 22.2176 51.8924 22.8638L60.3729 31.3443H29.4257C28.5104 31.3443 27.77 32.0846 27.77 33C27.77 33.9154 28.5104 34.6557 29.4257 34.6557H60.3595L51.8789 43.1363C51.2328 43.7689 51.2328 44.8189 51.8789 45.4516Z" fill="white"/>
</svg>

<svg width="66" height="66" fill="none" xmlns="http://www.w3.org/2000/svg"><path d="M0 16.295v33.41c0 4.604 3.756 8.36 8.36 8.36h27.002c4.604 0 8.36-3.756 8.36-8.36v-5.411a1.655 1.655 0 1 0-3.312 0v5.411a5.073 5.073 0 0 1-5.061 5.062H8.359a5.073 5.073 0 0 1-5.061-5.062v-33.41a5.073 5.073 0 0 1 5.061-5.062h27.003a5.073 5.073 0 0 1 5.062 5.062v5.411c0 .916.74 1.656 1.656 1.656.915 0 1.655-.74 1.655-1.656v-5.411c0-4.604-3.755-8.36-8.36-8.36H8.36C3.756 7.935 0 11.678 0 16.295z" fill="#fff"/><path d="M51.879 45.452c.323.323.74.484 1.171.484.43 0 .848-.161 1.171-.484l11.294-11.294a1.641 1.641 0 0 0 0-2.33L54.221 20.536a1.641 1.641 0 0 0-2.329 0 1.641 1.641 0 0 0 0 2.329l8.48 8.48H29.427c-.916 0-1.656.74-1.656 1.656 0 .915.74 1.656 1.656 1.656h30.933l-8.48 8.48a1.625 1.625 0 0 0 0 2.316z" fill="#fff"/></svg>
